dist/img/geo.svg

<svg width="32" height="32" viewBox="0 0 32 32" fill="none" xmlns="http://www.w3.org/2000/svg">
<path d="M7.55404 18.5638L21.9471 8.59494C22.4542 8.24375 23.0659 8.71826 22.8519 9.29672L16.7764 25.717C16.5704 26.2738 15.8135 26.323 15.6136 25.7927L13.6839 20.6718C13.607 20.4677 13.4267 20.3279 13.2099 20.3042L7.77002 19.7088C7.20659 19.6471 7.06601 18.9018 7.55404 18.5638Z" fill="#A7A7A7"/>
<rect x="0.5" y="0.5" width="31" height="31" rx="15.5" stroke="#A7A7A7"/>
</svg>

<svg width="32" height="32" fill="none" xmlns="http://www.w3.org/2000/svg"><path d="m7.554 18.564 14.393-9.97a.592.592 0 0 1 .905.703l-6.076 16.42c-.206.557-.963.606-1.162.076l-1.93-5.121a.568.568 0 0 0-.474-.368l-5.44-.595c-.563-.062-.704-.807-.216-1.145Z" fill="#A7A7A7"/><rect x=".5" y=".5" width="31" height="31" rx="15.5" stroke="#A7A7A7"/></svg>
